svg/fluentui-system-icons/ic_fluent_panel_left_text_add_32_filled.svg

<svg width="32" height="32" viewBox="0 0 32 32" fill="none" xmlns="http://www.w3.org/2000/svg">
<path d="M2 8.5C2 6.01472 4.01472 4 6.5 4H25.5C27.9853 4 30 6.01472 30 8.5V17.3427C29.4298 16.638 28.7553 16.0211 28 15.5155V8.5C28 7.11929 26.8807 6 25.5 6L13 6L13 26H14.5121C14.7638 26.7121 15.1025 27.383 15.5155 28H6.5C4.01472 28 2 25.9853 2 23.5V8.5ZM6.5 9C5.94772 9 5.5 9.44772 5.5 10C5.5 10.5523 5.94772 11 6.5 11H8.5C9.05228 11 9.5 10.5523 9.5 10C9.5 9.44772 9.05228 9 8.5 9H6.5ZM5.5 16C5.5 16.5523 5.94772 17 6.5 17H8.5C9.05228 17 9.5 16.5523 9.5 16C9.5 15.4477 9.05228 15 8.5 15H6.5C5.94772 15 5.5 15.4477 5.5 16ZM5.5 22C5.5 22.5523 5.94772 23 6.5 23H8.5C9.05228 23 9.5 22.5523 9.5 22C9.5 21.4477 9.05228 21 8.5 21H6.5C5.94772 21 5.5 21.4477 5.5 22ZM23 30.5C27.1421 30.5 30.5 27.1421 30.5 23C30.5 18.8579 27.1421 15.5 23 15.5C18.8579 15.5 15.5 18.8579 15.5 23C15.5 27.1421 18.8579 30.5 23 30.5ZM24 18.25V22H27.75C28.1642 22 28.5 22.3358 28.5 22.75C28.5 23.1642 28.1642 23.5 27.75 23.5H24V27.25C24 27.6642 23.6642 28 23.25 28C22.8358 28 22.5 27.6642 22.5 27.25V23.5H18.75C18.3358 23.5 18 23.1642 18 22.75C18 22.3358 18.3358 22 18.75 22H22.5V18.25C22.5 17.8358 22.8358 17.5 23.25 17.5C23.6642 17.5 24 17.8358 24 18.25Z" fill="#212121"/>
</svg>

<svg xmlns="http://www.w3.org/2000/svg" width="32" height="32"><path d="M2 8.5A4.5 4.5 0 0 1 6.5 4h19A4.5 4.5 0 0 1 30 8.5v8.843a9.05 9.05 0 0 0-2-1.828V8.5A2.5 2.5 0 0 0 25.5 6H13v20h1.512c.252.712.59 1.383 1.003 2H6.5A4.5 4.5 0 0 1 2 23.5v-15Zm4.5.5a1 1 0 0 0 0 2h2a1 1 0 1 0 0-2h-2Zm-1 7a1 1 0 0 0 1 1h2a1 1 0 1 0 0-2h-2a1 1 0 0 0-1 1Zm0 6a1 1 0 0 0 1 1h2a1 1 0 1 0 0-2h-2a1 1 0 0 0-1 1ZM23 30.5a7.5 7.5 0 1 0 0-15 7.5 7.5 0 0 0 0 15Zm1-12.25V22h3.75a.75.75 0 0 1 0 1.5H24v3.75a.75.75 0 0 1-1.5 0V23.5h-3.75a.75.75 0 0 1 0-1.5h3.75v-3.75a.75.75 0 0 1 1.5 0Z"/></svg>
